X: 480
T: Clyde Durst's Tune
B: jims roots
M:C|
L:1/8
Q: 1/4=100
K:C
V:1 
%Z:Jim Kendrick
|:GA | "C"c2Gc e2ce | geae gedc | "G7"B2GA Bcde | feag fedB |
"C"c2Gc e2ce | geae gedc | "G7"BGBa gdBd | "C"[c3e][ce][c2e]:|
|:fg | "F"a2[c2a][c2a][c2a] | fga^g aba=g | "C"ecga g2 ef | g^fga g=feg |
"G7"f3g fede | fefg fedc | BGBa gdBd | "C"[c3e][ce][c2e] :|
% abcbook-tune_id 6298c24567aa2cf3a961ff07


% abcbook-boost 0
% abcbook-tablature 
% abcbook-transpose 
% abcbook-lastupdated 1654178373756
% abcbook-soundfonts 
% abcbook-repeats 1


